lib/healthicons/icons/solid/specialties/hematology.svg

<svg fill="none" height="48" viewBox="0 0 48 48" width="48" xmlns="http://www.w3.org/2000/svg"><path clip-rule="evenodd" d="m9 6c-1.65685 0-3 1.34315-3 3v30c0 1.6569 1.34315 3 3 3h30c1.6569 0 3-1.3431 3-3v-30c0-1.65685-1.3431-3-3-3zm15.018 28.9934c4.48-.0036 7.9972-3.4637 7.9936-7.8637-.0034-4.0857-8.0116-14.1363-8.0116-14.1363s-7.992 9.7495-7.9884 14.1495 3.5264 7.8542 8.0064 7.8505z" fill="#333" fill-rule="evenodd"/></svg>

<svg width="48" height="48" viewBox="0 0 48 48" fill="none" xmlns="http://www.w3.org/2000/svg">
<path fill-rule="evenodd" clip-rule="evenodd" d="M9 6C7.34315 6 6 7.34315 6 9V39C6 40.6569 7.34315 42 9 42H39C40.6569 42 42 40.6569 42 39V9C42 7.34315 40.6569 6 39 6H9ZM24.018 34.9934C28.498 34.9898 32.0152 31.5297 32.0116 27.1297C32.0082 23.044 24 12.9934 24 12.9934C24 12.9934 16.008 22.7429 16.0116 27.1429C16.0152 31.5429 19.538 34.9971 24.018 34.9934Z" fill="#333333"/>
</svg>
